!!!COM: Palestrina, Giovanni Perluigi da
!!!OPR: Missa Jam Christus astra ascenderat
!!!OTL: Agnus II
**kern	**kern	**kern	**kern	**kern
*Ibass	*Itenor	*Icalto	*Icalto	*Icant
!Bassus	!Tenor	!Altus 2	!Altus 1	!Cantus
*clefF4	*clefGv2	*clefG2	*clefG2	*clefG2
*k[b-]	*k[b-]	*k[b-]	*k[b-]	*k[b-]
*G:dor	*G:dor	*G:dor	*G:dor	*G:dor
*M4/2	*M4/2	*M4/2	*M4/2	*M4/2
=1	=1	=1	=1	=1
0r	1G	0r	0r	0r
.	[1B-	.	.	.
=2	=2	=2	=2	=2
0r	1B-]	1G	1r	0r
.	1G	1B-	1d	.
=3	=3	=3	=3	=3
0r	2F	2c	1f	0r
.	1B-	1d	.	.
.	.	.	2g	.
.	2c	2e	[2a	.
=4	=4	=4	=4	=4
0r	0d	2f	2a]	0r
.	.	2g	1g	.
.	.	1a	.	.
.	.	.	2f#	.
=5	=5	=5	=5	=5
1r	4G	1b-	2g	0r
.	4A	.	.	.
.	4B-	.	2d	.
.	4c	.	.	.
1D	1d	2a	2f	.
.	.	[2f	2d	.
=6	=6	=6	=6	=6
0A	1r	4f]	2c	1a
.	.	4e	.	.
.	.	2d	2.f	.
.	[1A	1c	.	1cc
.	.	.	4g	.
.	.	.	[2a	.
=7	=7	=7	=7	=7
1D	1A]	1f	2a]	1dd
.	.	.	2d	.
2C	1c	2e	2g	2ee
[2F	.	[2a	[2f	[2ff
=8	=8	=8	=8	=8
2F]	2d	2a]	2f]	2ff]
2G	1e	4g	2b-	4ee
.	.	4f	.	4dd
[1A	.	2e	[1a	2cc
.	2f	2d	.	[2dd
=9	=9	=9	=9	=9
1A]	2e	1e	0a]	2dd]
.	2A	.	.	2cc
4D	2.A	2d	.	1ff
4E	.	.	.	.
4F	.	[2c	.	.
4G	4B	.	.	.
=10	=10	=10	=10	=10
4A	1c	4c]	1r	1ee
4B	.	4d	.	.
1c	.	4e	.	.
.	.	4f	.	.
.	1G	[1g	2r	1dd
2B	.	.	2d	.
=11	=11	=11	=11	=11
2c	1c	2g]	2e-	1g
2C	.	2e-	2c	.
[1G	2r	2d	4B-	[1b-
.	.	.	4c	.
.	2G	[2B-	4d	.
.	.	.	4e	.
=12	=12	=12	=12	=12
1G]	1.B-	4B-]	1d	1b-]
.	.	4c	.	.
.	.	2d	.	.
1E-	.	2G	1r	[1g
.	2c	2g	.	.
=13	=13	=13	=13	=13
1D	1d	2b-	1r	2g]
.	.	2.a	.	2f
1r	1e-	.	1g	2b-
.	.	4g	.	.
.	.	[2g	.	2cc
=14	=14	=14	=14	=14
1r	1d	2g]	2b-	0dd
.	.	2f#	2a	.
1G	2r	2g	4b-	.
.	.	.	4a	.
.	2d	2b-	4g	.
.	.	.	4f	.
=15	=15	=15	=15	=15
2G	2e	2b-	2g	0r
2F	1f	2a	2c	.
1B-	.	2f	1d	.
.	2d	[2g	.	.
=16	=16	=16	=16	=16
1.c	1.e	2g]	1r	0r
.	.	2.a	.	.
.	.	.	2r	.
.	.	4g	.	.
2B-	2d	2g	2g	.
=17	=17	=17	=17	=17
1A	2e	1c	2g	1r
.	2c	.	2f	.
1G	2d	1g	1b-	1dd
.	2d	.	.	.
=18	=18	=18	=18	=18
0r	2d	2r	2a	2ff
.	2c	2g	2.cc	2ee
.	1f	1a	.	2cc
.	.	.	4b-	.
.	.	.	2a	[2dd
=19	=19	=19	=19	=19
0r	1.g	2.b-	2g	2dd]
.	.	.	1b-	2.ee-
.	.	4a	.	.
.	.	2g	.	.
.	.	.	.	4dd
.	2f	2d	[2a	[2dd
=20	=20	=20	=20	=20
1r	1e-	1g	2a]	2dd]
.	.	.	1g	2cc
2r	1d	1a	.	2dd
2D	.	.	4f#	2a
.	.	.	4e	.
=21	=21	=21	=21	=21
2D	1r	2d	2f#	2b
2C	.	2e	2g	1cc
1F	1A	2.f	1a	.
.	.	.	.	[2dd
.	.	4e	.	.
=22	=22	=22	=22	=22
1.G	2.B-	2.d	1g	2dd]
.	.	.	.	1b-
.	4c	4c	.	.
.	1d	2B-	1r	.
2F	.	[2d	.	2a
=23	=23	=23	=23	=23
1E	1G	2d]	0r	1g
.	.	2c#	.	.
[1D	1A	[1d	.	1f#
=24	=24	=24	=24	=24
1D]	2A	1d]	2r	1f#
.	2d	.	2a	.
1r	4d	1r	4f	1a
.	4e	.	4g	.
.	4f	.	4a	.
.	4d	.	4f	.
=25	=25	=25	=25	=25
0r	2e	0r	2g	1cc
.	2f	.	2a	.
.	2B-	.	2.b-	2.dd
.	4G	.	.	.
.	4A	.	4a	4cc
=26	=26	=26	=26	=26
0r	4B-	0r	2g	2b-
.	4c	.	.	.
.	2d	.	2f	2.a
.	2B-	.	1g	.
.	.	.	.	4g
.	2G	.	.	[2g
=27	=27	=27	=27	=27
1r	1d	1r	1a	2g]
.	.	.	.	2f#
2r	2G	1B-	1g	1g
2G	2d	.	.	.
=28	=28	=28	=28	=28
4G	4B-	1d	1r	0r
4A	4c	.	.	.
4B-	4d	.	.	.
4G	4B-	.	.	.
2A	2c	1f	2r	.
2B-	2d	.	[2b-	.
=29	=29	=29	=29	=29
2E-	2.e-	2.g	2b-]	0r
4C	.	.	2cc	.
4D	4d	4f	.	.
4E-	2c	2e-	1g	.
4F	.	.	.	.
2G	2B-	[2d	.	.
=30	=30	=30	=30	=30
1C	1e-	4d]	1g	0r
.	.	4c	.	.
.	.	1c	.	.
1G	2.d	.	1g	.
.	.	2B	.	.
.	4e	.	.	.
=31	=31	=31	=31	=31
0F	1f	1c	2a	2r
.	.	.	2b-	2f
.	2r	1r	2cc	1a
.	2A	.	2c	.
=32	=32	=32	=32	=32
0r	4A	2r	1e	1cc
.	4B	.	.	.
.	4c	2e	.	.
.	4A	.	.	.
.	2B	2d	1g	2dd
.	2c	2e	.	[2cc
=33	=33	=33	=33	=33
2r	1F	1f	2.a	4cc]
.	.	.	.	4b-
2F	.	.	.	1a
.	.	.	4g	.
2A	1r	2.cc	2f	.
2c	.	.	[2e	2g
.	.	4b-	.	.
=34	=34	=34	=34	=34
2d	1r	2a	4e]	2f
.	.	.	4d	.
2G	.	4g	1d	2b-
.	.	4f	.	.
1A	2r	1e	.	1a
.	[2A	.	2c#	.
=35	=35	=35	=35	=35
0D	2A]	2f	1d	2r
.	2B-	2d	.	2f
.	2A	4d	1f	1a
.	.	4e	.	.
.	2d	4f	.	.
.	.	4d	.	.
=36	=36	=36	=36	=36
1r	2c	2e	2g	1cc
.	2F	2f	2a	.
2r	2r	4B-	2b-	1dd
.	.	4c	.	.
2D	2F	4d	[2a	.
.	.	4e	.	.
=37	=37	=37	=37	=37
4D	1A	1f	4a]	1dd
4E	.	.	4g	.
4F	.	.	4a	.
4D	.	.	4f	.
2E	1c	1r	2g	1cc
2F	.	.	2a	.
=38	=38	=38	=38	=38
2BB-	2.d	2r	2b-	2.ff
2.B-	.	2B-	1f	.
.	4c	.	.	4ee
.	2B-	2d	.	2dd
4A	.	.	.	.
2F	[2A	2f	2a	2cc
=39	=39	=39	=39	=39
1G	4A]	2d	1b-	2b-
.	4G	.	.	.
.	1G	2.e-	.	2g
2.D	.	.	2a	2dd
.	.	4d	.	.
.	2F#	[2d	[2a	2dd
4D	.	.	.	.
=40	=40	=40	=40	=40
2E-	1G	2d]	4a]	2b-
.	.	.	4g	.
2E-	.	2c	1g	2g
[1D	[1A	[1d	.	[1dd
.	.	.	4f#	.
.	.	.	4e	.
=41	=41	=41	=41	=41
1D]	1A]	1d]	1f#	1dd]
[1G	[1G	[1d	[1g	[1b
=42	=42	=42	=42	=42
1G]	1G]	1d]	1g]	1b]
==	==	==	==	==
*-	*-	*-	*-	*-
!!!CDT: 1525/^1526/-1594/2/2
!!!OCY: Italia
!!!AGN: Mass (Paraphrase)
!!!AST: renaissance, vocal
!!!ASW: Hymn
!!!PWK: Masses, Book 5
!!!RNB: Cadence finals: D
!!!YOR: Le Opere Complete, v. 15, p. 20
!!!YOO: Rome, Italy: Fratelli Scalera
!!!END: 1992//
!!!EED: John Miller
!!!YEC: Copyright 2000, John Miller
!!!YEN: United States of America
!!!YEM: Rights to all derivative electronic formats reserved.
!!!YEM: Refer to licensing agreement for further details.
!!!YEM: This file must be accompanied by the licensing agreement.
!!!YEM: A copy of the licensing agreement may be found at http://www.music-cog.ohio-state.edu/HumdrumDatabases/Palestrina/license.txt
!!!EMD: converted to Humdrum by Bret Aarden
